X: 60
T: Debka Hakatsir
C: Chaim Keinan 1959
O: Israel
N: Tikva Records T104: Dance for Fun, Ayala Goren, Shai Burstyn, Geula Zohar
M: 2/4
L: 1/8
K: Emix
Q:1/4=216
%%MIDI program 21 accordian
|:B,2|E2E2|FGAG|G2G2|\
z2A2|G2G2|FEF2|G2F2|E2B,2|
E2E2|FGAG|G2G2|\
zAGF|F2E2|F2G2|F2E2::
|:EAGF|G3F|GFE2|z2FG|\
ABG2|GzGE|F2z2:|



